X:155
T:Hey Ho My Honey. (p)1657.PLFD.156
T:Maheney. (p)1657.PLFD.156
T:New Dance,A. (p)1657.PLFD.156
M:6/4
L:1/4
Q:3/4=120
S:Playford, Dancing Master,Supplement to 3rd Ed.,1657
O:England
H:1657.
Z:Chris Partington.
K:F
g |\
^f2d  def  | g3    b3 | (fd2) c2B   | G3- G2g |\
^f2d  def  | g3    b3 | (fd2) c2B   | B3- B2G |
 B>AB c>Bc | df2- f2F | B>AB  c>d_e | d3- d2A |\
 B>c  dec2 | f3   g3  | (fd2) c2B   | G3- G2A |
 B3   A2G  | AF2- F2F | B>AB  c>Bc  | d3- d2A |\
 B>c  dec2 | f3   g3  | (fd2) c2B   | G3- G2 :|
